X:206 
T:Tie the Ribbons  (reel) 
B:CRE3.179 (Ceangal na Ribini)
F:file ID: cre.3/206tie_r
R:reel
L:1/8
Q:180
M:C
K:Em
d^c|BEE2 GBAG|(3FED AD B2AF|GFEF GAB^c|d^cdf ecdc|
BEE2 GBAG|(3FED AD BDAF|GFEF GABc|d3d e2:|
ef|g2gf gbag|fdd^c dfaf|g4 gbbf|gfed (3B^cd ef|
g4 gbag|fdd^c dfaf|(3bag af gfed|Bgfg e2:|

%%%

